%
(CALIBRATE_5X1)
(T2  D=0.3937 CR=0. TAPER=118DEG - ZMIN=-0.04 - SPOT DRILL)
N10 G90 G94 G17 G91.1
N15 G20
N20 G53 G0 Z0.
(TRACE1)
N25 M9
N30 T2 M6
N35 S5000 M3
N40 G54
N45 M8
N50 G0 X2.5 Y-0.5
N55 G43 Z0.6 H2
N60 G0 Z0.16
N65 G1 Z-0.04 F39.37
N70 X-2.5
N75 Y0.5
N80 X2.5
N85 Y-0.5
N90 Z0.16
N95 G0 Z0.6
(TRACE5)
N100 G0 X-2. Y0.
N105 Z0.6
N110 Z0.16
N115 G1 Z-0.04 F39.37
N120 Y0.1
N125 X-1.9
N130 Y0.
N135 X-1.8
N140 Y0.1
N145 X-1.7
N150 Y0.
N155 X-1.6
N160 Y0.1
N165 X-1.5
N170 Y0.
N175 X-1.4
N180 Y0.1
N185 X-1.3
N190 Y0.
N195 X-1.2
N200 Y0.2
N205 Z0.16
N210 G0 Z0.6
N215 M9
N220 G53 Z0.
N225 M30
%
